icons/database-fill.svg

<svg viewBox="0 0 24 24" fill="currentColor" xmlns="http://www.w3.org/2000/svg">
    <path d="M11 7V4C11 3.44772 11.4477 3 12 3H21C21.5523 3 22 3.44772 22 4V20C22 20.5523 21.5523 21 21 21H3C2.44772 21 2 20.5523 2 20V8C2 7.44772 2.44772 7 3 7H11ZM5 16V18H10V16H5ZM14 16V18H19V16H14ZM14 13V15H19V13H14ZM14 10V12H19V10H14ZM5 13V15H10V13H5Z"/>
</svg>

<svg xmlns="http://www.w3.org/2000/svg" viewBox="0 0 24 24">
    <g>
        <path fill="none" d="M0 0h24v24H0z"/>
        <path d="M11 7V4a1 1 0 0 1 1-1h9a1 1 0 0 1 1 1v16a1 1 0 0 1-1 1H3a1 1 0 0 1-1-1V8a1 1 0 0 1 1-1h8zm-6 9v2h5v-2H5zm9 0v2h5v-2h-5zm0-3v2h5v-2h-5zm0-3v2h5v-2h-5zm-9 3v2h5v-2H5z"/>
    </g>
</svg>
